X:0172
T:The Hammermen's March, or Tinkers Occupation.
T:Clout the Cauldron
T:The Fornicator (Burns)
M:C
L:1/8
Q:1/2=76
I: :: ::
Z:Jack Campin * www.campin.me.uk * 2009
K:A Mixolydian
Bcde d2A2|d3 e d2f2|e2d2 c2B2|Tc4 B2A2:|
F2E2 E2FA|BABd AFED|F2E2 E2FA|TB4 A4  :|

